X:76
T: WIDE WIDE WENNE HEISST MEINE PUTHENNE
N: K1266
O: Europa, Mitteleuropa, Deutschland
R: Kinder - Lied, Zaehl - Geschichte
M: 3/8
L: 1/16
K: D
 | D3EFG | A2d2
F2 | A2G2E2 | E2D2z2
A2G2E2 | B2A2F2
A2G2E2 | B2A2F2
D3EFG | A2d2
F2 | A2G2E2 | E2D2z2

